icons/blood_rh_p.svg

<svg width="48" height="48" viewBox="0 0 48 48" fill="none" xmlns="http://www.w3.org/2000/svg">
<path fill-rule="evenodd" clip-rule="evenodd" d="M27.6121 5.53462C25.6433 3.48846 22.3567 3.48846 20.3879 5.53462L19.8602 6.0831H15C12.2448 6.0831 10 8.30376 10 11.0569V33.0262C10 35.7793 12.2448 38 15 38H18V40H23V44H25V40H30V38H33C35.7552 38 38 35.7794 38 33.0262V23H36V27.5388C35.7222 27.3234 35.4135 27.1103 35.0748 26.9132C33.2501 25.8513 30.6105 25.2987 27.4919 27.1387C24.924 28.6537 22.5089 29.0636 19.8818 29.1195C18.7111 29.1444 17.5143 29.0991 16.231 29.0505C16.056 29.0438 15.8789 29.0371 15.7005 29.0306C14.5326 28.9875 13.3017 28.9498 12 28.9709V11.0569C12 9.4207 13.3369 8.0831 15 8.0831H20.2857C20.5576 8.0831 20.8178 7.97238 21.0063 7.77645L21.8291 6.92133C23.0111 5.69289 24.9889 5.69289 26.1709 6.92133L26.9937 7.77645C27.1822 7.97238 27.4424 8.0831 27.7143 8.0831H33.3302C34.8109 8.0831 36 9.27385 36 10.7289V15H38V10.7289C38 8.1569 35.903 6.0831 33.3302 6.0831H28.1398L27.6121 5.53462ZM15.6267 31.0292C14.4539 30.9859 13.2549 30.9498 12 30.9712V33.0262C12 34.6624 13.3369 36 15 36H33C34.6631 36 36 34.6624 36 33.0262V30.3295C35.9122 30.2186 35.7913 30.0741 35.6392 29.9108C35.2727 29.5177 34.7407 29.0328 34.0689 28.6418C32.7749 27.8888 30.9145 27.4415 28.5081 28.8612C25.551 30.6059 22.766 31.0586 19.9243 31.119C18.6899 31.1453 17.4295 31.0974 16.1531 31.049C15.9779 31.0423 15.8025 31.0357 15.6267 31.0292Z" fill="black"/>
<path d="M25 14C25.5523 14 26 14.4477 26 15V18H29V15C29 14.4477 29.4477 14 30 14C30.5523 14 31 14.4477 31 15V23C31 23.5523 30.5523 24 30 24C29.4477 24 29 23.5523 29 23V20H26V23C26 23.5523 25.5523 24 25 24C24.4477 24 24 23.5523 24 23V15C24 14.4477 24.4477 14 25 14Z" fill="black"/>
<path fill-rule="evenodd" clip-rule="evenodd" d="M16 14C15.4477 14 15 14.4477 15 15V23C15 23.5523 15.4477 24 16 24C16.5523 24 17 23.5523 17 23V20H18.4893L20.0945 23.4244C20.3289 23.9245 20.9244 24.1399 21.4244 23.9055C21.9245 23.6711 22.1399 23.0756 21.9055 22.5756L20.5225 19.6252C21.4201 19.1029 22 18.0964 22 17C22 15.4049 20.7726 14 19.125 14H16ZM20 17C20 17.6141 19.5484 18 19.125 18H17V16H19.125C19.5484 16 20 16.3859 20 17Z" fill="black"/>
<path d="M32 19C32 18.4477 32.4477 18 33 18H34V17C34 16.4477 34.4477 16 35 16C35.5523 16 36 16.4477 36 17V18H37C37.5523 18 38 18.4477 38 19C38 19.5523 37.5523 20 37 20H36V21C36 21.5523 35.5523 22 35 22C34.4477 22 34 21.5523 34 21V20H33C32.4477 20 32 19.5523 32 19Z" fill="black"/>
</svg>

<svg
  xmlns="http://www.w3.org/2000/svg"
  width="24"
  height="24"
  viewBox="0 0 24 24"
  fill="none"
  stroke="currentColor"
  stroke-width="2"
  stroke-linecap="round"
  stroke-linejoin="round"
>
  <path
    fill-rule="evenodd"
    d="M27.612 5.535a5.02 5.02 0 0 0-7.224 0l-.528.548H15c-2.755 0-5 2.22-5 4.974v21.97C10 35.778 12.245 38 15 38h3v2h5v4h2v-4h5v-2h3c2.755 0 5-2.22 5-4.974V23h-2v4.539a8.4 8.4 0 0 0-.925-.626c-1.825-1.062-4.465-1.614-7.583.226-2.568 1.515-4.983 1.925-7.61 1.98-1.17.025-2.368-.02-3.651-.069l-.53-.02A69 69 0 0 0 12 28.97V11.058c0-1.636 1.337-2.974 3-2.974h5.286a1 1 0 0 0 .72-.307l.823-.855a3.02 3.02 0 0 1 4.342 0l.823.855a1 1 0 0 0 .72.307h5.616c1.48 0 2.67 1.19 2.67 2.646V15h2v-4.271c0-2.572-2.097-4.646-4.67-4.646h-5.19zM15.627 31.029A66 66 0 0 0 12 30.971v2.055C12 34.662 13.337 36 15 36h18c1.663 0 3-1.338 3-2.974V30.33a7.004 7.004 0 0 0-1.931-1.688c-1.294-.752-3.155-1.2-5.56.22-2.958 1.745-5.743 2.198-8.585 2.258-1.234.026-2.494-.022-3.77-.07z"
    clip-rule="evenodd"
  />
  <path d="M25 14a1 1 0 0 1 1 1v3h3v-3a1 1 0 1 1 2 0v8a1 1 0 1 1-2 0v-3h-3v3a1 1 0 1 1-2 0v-8a1 1 0 0 1 1-1" />
  <path
    fill-rule="evenodd"
    d="M16 14a1 1 0 0 0-1 1v8a1 1 0 1 0 2 0v-3h1.49l1.605 3.424a1 1 0 0 0 1.81-.848l-1.383-2.95C21.42 19.102 22 18.095 22 17c0-1.595-1.227-3-2.875-3zm4 3c0 .614-.452 1-.875 1H17v-2h2.125c.423 0 .875.386.875 1"
    clip-rule="evenodd"
  />
  <path d="M32 19a1 1 0 0 1 1-1h1v-1a1 1 0 1 1 2 0v1h1a1 1 0 1 1 0 2h-1v1a1 1 0 1 1-2 0v-1h-1a1 1 0 0 1-1-1" />
</svg>
